public/favicon.svg

<?xml version="1.0" encoding="UTF-8"?>
<svg width="75" height="75" version="1.1" viewBox="0 0 256 256" xmlns="http://www.w3.org/2000/svg">
    <g transform="translate(32 32) scale(.75)">
        <g fill="none" stroke-dasharray="" stroke-miterlimit="10" style="mix-blend-mode:normal">
            <g transform="translate(0 1e-4) scale(3.4133)">
                <rect width="75" height="75" fill="#000" fill-opacity="0" stroke-width="1"/>
                <circle cx="37.5" cy="37.5" r="36" fill="#fff" stroke="#47564c" stroke-width="3"/>
                <path d="m16.478 45.843c-0.0291 0.0166-0.061 0.0219-0.0906 0.0369h7.7064c4.2407-5.0721 7.6162-10.72 9.02-17.11v-4.2439c-1.5181 4.4957-3.9061 8.463-6.8408 12.092-2.8915 3.5754-5.9756 7.0406-9.795 9.2254z"
                      fill="#47564c" stroke-width="1"/>
                <path d="m37.5-6e-5c-20.678 0-37.5 16.823-37.5 37.501 0 20.677 16.822 37.499 37.5 37.499 20.678 0 37.5-16.823 37.5-37.499 0-20.678-16.822-37.501-37.5-37.501zm0 74.252c-17.562 0-32.278-12.385-35.893-28.878 2.422-1.5066 4.021-2.5144 6.5753-4.1751 6.6879-4.3472 13.079-9.1785 18.802-15.054 2.2091-2.2678 4.2417-4.7193 6.1309-7.3819v-4.4397h0.8951v4.7967c0.1095 0.2463 0.2132 0.4987 0.3257 0.74 4.2138 9.0069 11.054 15.15 18.479 20.652-1.716-1.6617-3.4851-3.2598-5.1338-5.0019-1.6607-1.7562-3.203-3.6543-4.7193-5.6109 8.9028 8.2897 19.423 12.168 30.356 15.806-3.739 16.326-18.374 28.547-35.817 28.547z"
                      fill="#47564c" stroke-width="1"/>
                <path d="m53.967 53.326v1.4292l-3.5389 8.0986h-2.3954l3.4162-7.731h-3.1578v1.5515h-1.9599v-3.3483zm-8.3685 6.4107v1.7558h-7.2005v-1.2249l3.6889-2.9127c0.7621-0.5989 0.9798-0.9801 0.9798-1.4156 0-0.5717-0.5035-0.9662-1.4836-0.9662-0.8983 0-1.5654 0.3402-1.987 0.9798l-1.6472-0.9391c0.735-1.1569 2.0553-1.8511 3.7975-1.8511 2.1507 0 3.5392 1.1026 3.5392 2.5725 0 0.9798-0.3402 1.6741-1.6334 2.6677l-1.6879 1.3338zm-10.315-2.3274c0-1.579-0.8165-2.4226-1.9463-2.4226s-1.9463 0.8436-1.9463 2.4226c0 1.5789 0.8165 2.4228 1.9463 2.4228s1.9463-0.8439 1.9463-2.4228zm-6.0976 0c0-2.518 1.742-4.2466 4.1513-4.2466 2.409 0 4.1376 1.7286 4.1376 4.2466 0 2.5181-1.7286 4.2468-4.1376 4.2468-2.4093 0-4.1513-1.7287-4.1513-4.2468zm-0.9777 2.3274v1.7558h-7.2005v-1.2249l3.6888-2.9127c0.7622-0.5989 0.9798-0.9801 0.9798-1.4156 0-0.5717-0.5034-0.9662-1.4835-0.9662-0.8983 0-1.5654 0.3402-1.9874 0.9798l-1.6468-0.9391c0.735-1.1569 2.0552-1.8511 3.7975-1.8511 2.1506 0 3.5391 1.1026 3.5391 2.5725 0 0.9798-0.3405 1.6741-1.6336 2.6677l-1.6876 1.3338z"
                      fill="#47564c" stroke-width="1"/>
            </g>
        </g>
    </g>
</svg>

<svg width="75" height="75" viewBox="0 0 75 75" fill="none" xmlns="http://www.w3.org/2000/svg">
    <rect width="75" height="75" fill="url(#pattern0_0_1)" fill-opacity="0"></rect>
    <circle cx="37.5" cy="37.5" r="36" stroke="#47564C" fill="#fff" stroke-width="3"></circle>
    <path d="M16.4783 45.8427C16.4492 45.8593 16.4173 45.8646 16.3877 45.8796H24.0941C28.3348 40.8075 31.7103 35.1598 33.1141 28.7697V24.5258C31.596 29.0215 29.208 32.9888 26.2733 36.6173C23.3818 40.1927 20.2977 43.6579 16.4783 45.8427Z"
          fill="#47564C"></path>
    <path d="M37.4999 -6.10352e-05C16.8224 -6.10352e-05 0 16.8226 0 37.5008C0 58.1774 16.8224 75 37.4999 75C58.1776 75 75 58.1774 75 37.5008C75 16.8226 58.1776 -6.10352e-05 37.4999 -6.10352e-05ZM37.4999 74.2517C19.9374 74.2517 5.22141 61.8664 1.60641 45.3739C4.02842 43.8673 5.62744 42.8595 8.18171 41.1988C14.8696 36.8516 21.2604 32.0203 26.9838 26.1443C29.1929 23.8765 31.2255 21.425 33.1147 18.7624V14.3227H34.0098V19.1194C34.1193 19.3657 34.223 19.6181 34.3355 19.8594C38.5493 28.8663 45.3893 35.0098 52.8142 40.5117C51.0982 38.85 49.3291 37.2519 47.6804 35.5098C46.0197 33.7536 44.4774 31.8555 42.9611 29.8989C51.8639 38.1886 62.3838 42.0667 73.3171 45.7049C69.5781 62.0311 54.9436 74.2517 37.4999 74.2517Z"
          fill="#47564C"></path>
    <path d="M53.9671 53.3255V54.7547L50.4282 62.8533H48.0328L51.449 55.1223H48.2912V56.6738H46.3313V53.3255H53.9671ZM45.5986 59.7362V61.492H38.3981V60.2671L42.087 57.3544C42.8491 56.7555 43.0668 56.3743 43.0668 55.9388C43.0668 55.3671 42.5633 54.9726 41.5832 54.9726C40.6849 54.9726 40.0178 55.3128 39.5962 55.9524L37.949 55.0133C38.684 53.8564 40.0043 53.1622 41.7465 53.1622C43.8972 53.1622 45.2857 54.2648 45.2857 55.7347C45.2857 56.7145 44.9455 57.4088 43.6523 58.4024L41.9644 59.7362H45.5986ZM35.284 57.4088C35.284 55.8298 34.4675 54.9862 33.3377 54.9862C32.2079 54.9862 31.3914 55.8298 31.3914 57.4088C31.3914 58.9877 32.2079 59.8316 33.3377 59.8316C34.4675 59.8316 35.284 58.9877 35.284 57.4088ZM29.1864 57.4088C29.1864 54.8908 30.9284 53.1622 33.3377 53.1622C35.7467 53.1622 37.4753 54.8908 37.4753 57.4088C37.4753 59.9269 35.7467 61.6556 33.3377 61.6556C30.9284 61.6556 29.1864 59.9269 29.1864 57.4088ZM28.2087 59.7362V61.492H21.0082V60.2671L24.697 57.3544C25.4592 56.7555 25.6768 56.3743 25.6768 55.9388C25.6768 55.3671 25.1734 54.9726 24.1933 54.9726C23.295 54.9726 22.6279 55.3128 22.2059 55.9524L20.5591 55.0133C21.2941 53.8564 22.6143 53.1622 24.3566 53.1622C26.5072 53.1622 27.8957 54.2648 27.8957 55.7347C27.8957 56.7145 27.5552 57.4088 26.2621 58.4024L24.5745 59.7362H28.2087Z"
          fill="#47564C"></path>
</svg>
